svg/furkot/freepik/scenicroad.svg

<svg viewBox="0 0 512 512" xmlns="http://www.w3.org/2000/svg"><path d="m396.697 342.31c-2.704-6.813-5.959-13.46-10.247-19.735-3.2-4.679-6.711-9.045-10.558-13.392-3.678-4.33-8.318-8.371-12.872-12.079-5.89-4.801-12.255-9.212-18.955-13.256-13.168-7.948-27.528-14.456-42.118-20.513-14.956-6.208-30.411-11.885-44.474-19.389-11.018-5.879-22.042-13.761-25.158-24.624-.727-2.535-5.681-16.294 1.246-27.998 7.287-12.313 19.006-22.262 31.341-31.478l40.035-29.231c.142-.106.269-.226.406-.336 1.976 20.813 6.88 41.093 14.618 59.173 2.99 6.986 6.39 13.683 10.275 19.774 1.547 2.425 3.142 4.942 5.194 6.489v57.377h8.954v-57.337c.833-.594 1.608-1.35 2.291-2.268 3.612-4.853 6.774-10.501 9.602-16.247 4.653-9.445 8.491-19.649 11.471-30.31 5.918-21.177 8.391-43.996 7.62-66.652-.124-3.638-.333-7.268-.633-10.888-1.833-22.679-7.255-44.86-15.994-64.236-3.261-7.232-6.989-14.346-11.365-20.386-.939-1.293-1.885-2.483-3.08-3.319-1.541-1.08-3.287-1.575-5.012-1.42-1.719.154-3.399.95-4.823 2.287-.934.876-1.713 2.015-2.498 3.127-4.456 6.315-8.246 13.687-11.545 21.205-4.27 9.727-7.713 20.144-10.303 30.941-3.986 16.609-5.868 34.144-5.798 51.647-11.33 3.679-82.446 33.455-105.918 53.517-4.352 3.721-8.373 7.779-11.938 12.093-1.866-6.608-4.157-12.987-6.872-19.008-2.502-5.546-5.361-11.004-8.716-15.634-.72-.992-1.446-1.904-2.363-2.547-1.182-.828-2.52-1.208-3.844-1.089-1.319.118-2.605.728-3.698 1.754-.716.672-1.314 1.546-1.917 2.399-3.416 4.843-6.323 10.497-8.853 16.263-3.276 7.46-5.916 15.451-7.902 23.733-4.005 16.69-5.249 34.603-3.972 52.077 1.261 17.245 5.135 34.129 11.524 49.058 2.293 5.357 4.901 10.494 7.881 15.166 1.186 1.86 2.409 3.789 3.982 4.977v44.007h6.867v-43.974c.639-.456 1.234-1.037 1.757-1.739 2.77-3.723 5.196-8.056 7.365-12.461 2.556-5.19 4.785-10.678 6.688-16.38 6.311 8.729 14.117 16.795 22.469 24.055 11.444 9.945 24.194 18.801 36.829 27.725 6.42 4.535 12.826 9.095 18.865 13.965 5.516 4.445 32.292 25.794 5.575 38.959-13.79 6.794-28.493 12.174-42.881 18.091-15.73 6.467-36.22 15.76-45.427 21.912-58.837 39.306-68.911 80.406-71.129 95.945h77.842c.327-1.729.734-3.453 1.082-5.181.883-4.39 2.942-8.672 4.895-12.807l26.005 8.484c-1.354 3.047-2.877 6.263-3.346 9.506h80.048c1.69-1.464 3.443-2.88 5.213-4.271 8.395-6.601 17.41-12.664 26.223-18.887 12.354-8.732 24.468-17.72 35.282-27.722 11.449-10.587 20.911-22.168 28.432-34.849 7.668-12.901 11.511-27.25 12.724-41.458 1.212-14.205-1.01-29.051-6.392-42.605zm-175.453-175.592c12.177-10.033 26.482-18.006 40.991-25.654 6.885-3.627 13.785-7.219 20.591-10.921l3.58 2.222c-8.465 5.026-17.129 9.837-25.667 14.784-7.107 4.121-14.28 8.344-20.806 13.064-5.533 3.999-11.172 8.072-15.796 12.797l-5.622-3.959c.87-.81 1.799-1.567 2.729-2.333zm22.413 117.335c-2.824-1.775-5.619-3.579-8.363-5.438-12.649-8.561-24.912-18.894-31.78-31.197-3.463-6.206-6.222-12.633-7.299-19.418-.87-5.58-1.108-11.043-.656-16.659l9.642.452c-.003.095-.006.192-.009.288-.433 13.184 3.513 26.602 13.128 37.438 9.103 10.259 20.878 18.335 33.502 25.637zm81.149 138.52c-11.923 10.33-25.63 18.884-39.841 27.05-12.59 7.237-25.282 14.303-37.211 22.253l-16.48-16.464.738-.451c13.055-8.022 26.921-15.044 40.632-22.302 7.346-3.887 14.523-7.932 21.524-12.217 6.055-3.704 12.114-7.861 17.082-12.528l16.706 11.765c-.997 1.001-2.08 1.94-3.15 2.894zm25.692-48.85-19.902-.93c.03-.353.062-.705.092-1.059 1.06-12.1-2.357-24.44-10.367-34.753-8.213-10.578-19.799-18.977-31.88-26.591l9.48-10.33c3.581 2.075 7.137 4.187 10.577 6.416 13.314 8.628 25.261 18.749 32.9 31.207 3.613 6.228 6.411 12.596 7.786 19.413 1.119 5.537 1.505 11.019 1.314 16.627z"/><path d="m374.735 89.388c.517 6.215-.499-6.177 0 0z"/></svg>

<svg xmlns="http://www.w3.org/2000/svg" viewBox="0 0 512 512"><path d="M396.697 342.31C393.993 335.497 390.738 328.85 386.45 322.575 383.25 317.896 379.739 313.53 375.892 309.183 372.214 304.853 367.574 300.812 363.02 297.104 357.13 292.303 350.765 287.892 344.065 283.848 330.897 275.9 316.537 269.392 301.947 263.335 286.991 257.127 271.536 251.45 257.473 243.946 246.455 238.067 235.431 230.185 232.315 219.322 231.588 216.787 226.634 203.028 233.561 191.324 240.848 179.011 252.567 169.062 264.902 159.846L304.937 130.615C305.079 130.509 305.206 130.389 305.343 130.279 307.319 151.092 312.223 171.372 319.961 189.452 322.951 196.438 326.351 203.135 330.236 209.226 331.783 211.651 333.378 214.168 335.43 215.715V273.092H344.384V215.755C345.217 215.161 345.992 214.405 346.675 213.487 350.287 208.634 353.449 202.986 356.277 197.24 360.93 187.795 364.768 177.591 367.748 166.93 373.666 145.753 376.139 122.934 375.368 100.278 375.244 96.64 375.035 93.01 374.735 89.39 372.902 66.711 367.48 44.53 358.741 25.154 355.48 17.922 351.752 10.808 347.376 4.768 346.437 3.475 345.491 2.285 344.296 1.449 342.755 0.369 341.009-0.126 339.284 0.029 337.565 0.183 335.885 0.979 334.461 2.316 333.527 3.192 332.748 4.331 331.963 5.443 327.507 11.758 323.717 19.13 320.418 26.648 316.148 36.375 312.705 46.792 310.115 57.589 306.129 74.198 304.247 91.733 304.317 109.236 292.987 112.915 221.871 142.691 198.399 162.753 194.047 166.474 190.026 170.532 186.461 174.846 184.595 168.238 182.304 161.859 179.589 155.838 177.087 150.292 174.228 144.834 170.873 140.204 170.153 139.212 169.427 138.3 168.51 137.657 167.328 136.829 165.99 136.449 164.666 136.568 163.347 136.686 162.061 137.296 160.968 138.322 160.252 138.994 159.654 139.868 159.051 140.721 155.635 145.564 152.728 151.218 150.198 156.984 146.922 164.444 144.282 172.435 142.296 180.717 138.291 197.407 137.047 215.32 138.324 232.794 139.585 250.039 143.459 266.923 149.848 281.852 152.141 287.209 154.749 292.346 157.729 297.018 158.915 298.878 160.138 300.807 161.711 301.995V346.002H168.578V302.028C169.217 301.572 169.812 300.991 170.335 300.289 173.105 296.566 175.531 292.233 177.7 287.828 180.256 282.638 182.485 277.15 184.388 271.448 190.699 280.177 198.505 288.243 206.857 295.503 218.301 305.448 231.051 314.304 243.686 323.228 250.106 327.763 256.512 332.323 262.551 337.193 268.067 341.638 294.843 362.987 268.126 376.152 254.336 382.946 239.633 388.326 225.245 394.243 209.515 400.71 189.025 410.003 179.818 416.155 120.981 455.461 110.907 496.561 108.689 512.1H186.531C186.858 510.371 187.265 508.647 187.613 506.919 188.496 502.529 190.555 498.247 192.508 494.112L218.513 502.596C217.159 505.643 215.636 508.859 215.167 512.102H295.215C296.905 510.638 298.658 509.222 300.428 507.831 308.823 501.23 317.838 495.167 326.651 488.944 339.005 480.212 351.119 471.224 361.933 461.222 373.382 450.635 382.844 439.054 390.365 426.373 398.033 413.472 401.876 399.123 403.089 384.915 404.301 370.71 402.079 355.864 396.697 342.31ZM221.244 166.718C233.421 156.685 247.726 148.712 262.235 141.064 269.12 137.437 276.02 133.845 282.826 130.143L286.406 132.365C277.941 137.391 269.277 142.202 260.739 147.149 253.632 151.27 246.459 155.493 239.933 160.213 234.4 164.212 228.761 168.285 224.137 173.01L218.515 169.051C219.385 168.241 220.314 167.484 221.244 166.718ZM243.657 284.053C240.833 282.278 238.038 280.474 235.294 278.615 222.645 270.054 210.382 259.721 203.514 247.418 200.051 241.212 197.292 234.785 196.215 228 195.345 222.42 195.107 216.957 195.559 211.341L205.201 211.793C205.198 211.888 205.195 211.985 205.192 212.081 204.759 225.265 208.705 238.683 218.32 249.519 227.423 259.778 239.198 267.854 251.822 275.156L243.657 284.053ZM324.806 422.573C312.883 432.903 299.176 441.457 284.965 449.623 272.375 456.86 259.683 463.926 247.754 471.876L231.274 455.412 232.012 454.961C245.067 446.939 258.933 439.917 272.644 432.659 279.99 428.772 287.167 424.727 294.168 420.442 300.223 416.738 306.282 412.581 311.25 407.914L327.956 419.679C326.959 420.68 325.876 421.619 324.806 422.573ZM350.498 373.723L330.596 372.793C330.626 372.44 330.658 372.088 330.688 371.734 331.748 359.634 328.331 347.294 320.321 336.981 312.108 326.403 300.522 318.004 288.441 310.39L297.921 300.06C301.502 302.135 305.058 304.247 308.498 306.476 321.812 315.104 333.759 325.225 341.398 337.683 345.011 343.911 347.809 350.279 349.184 357.096 350.303 362.633 350.689 368.115 350.498 373.723Z"/><path d="M374.735 89.388C375.252 95.603 374.236 83.211 374.735 89.388L374.735 89.388Z"/></svg>
